sites/default/files/images/our platform/headings/Step-1-Heading.svg

<svg width="764" height="277" viewBox="0 0 764 277" fill="none" xmlns="http://www.w3.org/2000/svg">
<rect x="492" y="227" width="224" height="17" rx="8.5" fill="#5684E2"/>
<path d="M131.714 158.514C131.714 183.09 126.628 201.889 116.455 214.91C106.283 227.931 91.39 234.441 71.7773 234.441C52.4089 234.441 37.5977 228.053 27.3438 215.276C17.0898 202.5 11.8408 184.189 11.5967 160.345V127.63C11.5967 102.809 16.7236 83.9694 26.9775 71.1113C37.3128 58.2533 52.1647 51.8242 71.5332 51.8242C90.9017 51.8242 105.713 58.2126 115.967 70.9893C126.221 83.6846 131.47 101.954 131.714 125.799V158.514ZM96.4355 122.625C96.4355 107.895 94.401 97.1937 90.332 90.5205C86.3444 83.766 80.0781 80.3887 71.5332 80.3887C63.2324 80.3887 57.0882 83.6032 53.1006 90.0322C49.1943 96.3799 47.1191 106.349 46.875 119.939V163.152C46.875 177.638 48.8281 188.421 52.7344 195.501C56.722 202.5 63.0697 205.999 71.7773 205.999C80.4036 205.999 86.6292 202.622 90.4541 195.867C94.279 189.113 96.2728 178.777 96.4355 164.861V122.625ZM241.333 232H206.055V96.0137L163.94 109.075V80.3887L237.549 54.0215H241.333V232Z" fill="#2A2A2A"/>
<g filter="url(#filter0_d)">
<path d="M212.207 170.34C212.754 174.285 213.828 177.234 215.43 179.188C218.359 182.742 223.379 184.52 230.488 184.52C234.746 184.52 238.203 184.051 240.859 183.113C245.898 181.316 248.418 177.977 248.418 173.094C248.418 170.242 247.168 168.035 244.668 166.473C242.168 164.949 238.242 163.602 232.891 162.43L223.75 160.379C214.766 158.348 208.555 156.141 205.117 153.758C199.297 149.773 196.387 143.543 196.387 135.066C196.387 127.332 199.199 120.906 204.824 115.789C210.449 110.672 218.711 108.113 229.609 108.113C238.711 108.113 246.465 110.535 252.871 115.379C259.316 120.184 262.695 127.176 263.008 136.355H245.664C245.352 131.16 243.086 127.469 238.867 125.281C236.055 123.836 232.559 123.113 228.379 123.113C223.73 123.113 220.02 124.051 217.246 125.926C214.473 127.801 213.086 130.418 213.086 133.777C213.086 136.863 214.453 139.168 217.188 140.691C218.945 141.707 222.695 142.898 228.438 144.266L243.32 147.84C249.844 149.402 254.766 151.492 258.086 154.109C263.242 158.172 265.82 164.051 265.82 171.746C265.82 179.637 262.793 186.199 256.738 191.434C250.723 196.629 242.207 199.227 231.191 199.227C219.941 199.227 211.094 196.668 204.648 191.551C198.203 186.395 194.98 179.324 194.98 170.34H212.207ZM271.27 145.613V133.719H280.176V115.906H296.699V133.719H307.07V145.613H296.699V179.363C296.699 181.98 297.031 183.621 297.695 184.285C298.359 184.91 300.391 185.223 303.789 185.223C304.297 185.223 304.824 185.223 305.371 185.223C305.957 185.184 306.523 185.145 307.07 185.105V197.586L299.16 197.879C291.27 198.152 285.879 196.785 282.988 193.777C281.113 191.863 280.176 188.914 280.176 184.93V145.613H271.27ZM342.988 145.203C339.121 145.203 336.113 146.414 333.965 148.836C331.855 151.258 330.527 154.539 329.98 158.68H355.938C355.664 154.266 354.316 150.926 351.895 148.66C349.512 146.355 346.543 145.203 342.988 145.203ZM342.988 131.434C348.301 131.434 353.086 132.43 357.344 134.422C361.602 136.414 365.117 139.559 367.891 143.855C370.391 147.645 372.012 152.039 372.754 157.039C373.184 159.969 373.359 164.188 373.281 169.695H329.57C329.805 176.102 331.816 180.594 335.605 183.172C337.91 184.773 340.684 185.574 343.926 185.574C347.363 185.574 350.156 184.598 352.305 182.645C353.477 181.59 354.512 180.125 355.41 178.25H372.461C372.031 182.039 370.059 185.887 366.543 189.793C361.074 196.004 353.418 199.109 343.574 199.109C335.449 199.109 328.281 196.492 322.07 191.258C315.859 186.023 312.754 177.508 312.754 165.711C312.754 154.656 315.547 146.18 321.133 140.281C326.758 134.383 334.043 131.434 342.988 131.434ZM428.594 165.066C428.594 160.145 427.461 155.789 425.195 152C422.969 148.211 419.336 146.316 414.297 146.316C408.242 146.316 404.082 149.188 401.816 154.93C400.645 157.977 400.059 161.844 400.059 166.531C400.059 173.953 402.031 179.168 405.977 182.176C408.32 183.934 411.094 184.812 414.297 184.812C418.945 184.812 422.48 183.016 424.902 179.422C427.363 175.828 428.594 171.043 428.594 165.066ZM419.102 131.727C426.562 131.727 432.871 134.48 438.027 139.988C443.223 145.496 445.82 153.582 445.82 164.246C445.82 175.496 443.281 184.07 438.203 189.969C433.164 195.867 426.66 198.816 418.691 198.816C413.613 198.816 409.395 197.547 406.035 195.008C404.199 193.602 402.402 191.551 400.645 188.855V222.137H384.121V133.133H400.117V142.566C401.914 139.793 403.828 137.605 405.859 136.004C409.57 133.152 413.984 131.727 419.102 131.727ZM530.898 184.109C538.047 184.109 543.711 181.473 547.891 176.199C552.109 170.926 554.219 163.426 554.219 153.699C554.219 144.012 552.109 136.531 547.891 131.258C543.711 125.945 538.047 123.289 530.898 123.289C523.75 123.289 518.047 125.926 513.789 131.199C509.531 136.473 507.402 143.973 507.402 153.699C507.402 163.426 509.531 170.926 513.789 176.199C518.047 181.473 523.75 184.109 530.898 184.109ZM572.266 153.699C572.266 169.207 567.91 181.082 559.199 189.324C552.676 196.043 543.242 199.402 530.898 199.402C518.555 199.402 509.121 196.043 502.598 189.324C493.848 181.082 489.473 169.207 489.473 153.699C489.473 137.879 493.848 126.004 502.598 118.074C509.121 111.355 518.555 107.996 530.898 107.996C543.242 107.996 552.676 111.355 559.199 118.074C567.91 126.004 572.266 137.879 572.266 153.699ZM620.137 131.609C626.738 131.609 632.129 133.348 636.309 136.824C640.527 140.262 642.637 145.984 642.637 153.992V197H625.527V158.152C625.527 154.793 625.078 152.215 624.18 150.418C622.539 147.137 619.414 145.496 614.805 145.496C609.141 145.496 605.254 147.898 603.145 152.703C602.051 155.242 601.504 158.484 601.504 162.43V197H584.863V133.25H600.977V142.566C603.125 139.285 605.156 136.922 607.07 135.477C610.508 132.898 614.863 131.609 620.137 131.609ZM683.301 145.203C679.434 145.203 676.426 146.414 674.277 148.836C672.168 151.258 670.84 154.539 670.293 158.68H696.25C695.977 154.266 694.629 150.926 692.207 148.66C689.824 146.355 686.855 145.203 683.301 145.203ZM683.301 131.434C688.613 131.434 693.398 132.43 697.656 134.422C701.914 136.414 705.43 139.559 708.203 143.855C710.703 147.645 712.324 152.039 713.066 157.039C713.496 159.969 713.672 164.188 713.594 169.695H669.883C670.117 176.102 672.129 180.594 675.918 183.172C678.223 184.773 680.996 185.574 684.238 185.574C687.676 185.574 690.469 184.598 692.617 182.645C693.789 181.59 694.824 180.125 695.723 178.25H712.773C712.344 182.039 710.371 185.887 706.855 189.793C701.387 196.004 693.73 199.109 683.887 199.109C675.762 199.109 668.594 196.492 662.383 191.258C656.172 186.023 653.066 177.508 653.066 165.711C653.066 154.656 655.859 146.18 661.445 140.281C667.07 134.383 674.355 131.434 683.301 131.434Z" fill="#59C9FF"/>
</g>
<defs>
<filter id="filter0_d" x="144.98" y="61.9961" width="618.631" height="214.141" filterUnits="userSpaceOnUse" color-interpolation-filters="sRGB">
<feFlood flood-opacity="0" result="BackgroundImageFix"/>
<feColorMatrix in="SourceAlpha" type="matrix" values="0 0 0 0 0 0 0 0 0 0 0 0 0 0 0 0 0 0 127 0"/>
<feOffset dy="4"/>
<feGaussianBlur stdDeviation="25"/>
<feColorMatrix type="matrix" values="0 0 0 0 1 0 0 0 0 1 0 0 0 0 1 0 0 0 0.25 0"/>
<feBlend mode="normal" in2="BackgroundImageFix" result="effect1_dropShadow"/>
<feBlend mode="normal" in="SourceGraphic" in2="effect1_dropShadow" result="shape"/>
</filter>
</defs>
</svg>

<svg xmlns="http://www.w3.org/2000/svg" width="764" height="277" fill="none"><rect width="224" height="17" x="492" y="227" fill="#5684e2" rx="8.5"/><path fill="#2a2a2a" d="M131.7 158.5c0 24.6-5.07 43.4-15.25 56.4s-25.05 19.54-44.67 19.54c-19.37 0-34.18-6.4-44.44-19.16s-15.5-31.1-15.74-54.93v-32.72c0-24.82 5.12-43.66 15.38-56.52C37.3 58.26 52.16 51.83 71.53 51.83s34.18 6.4 44.44 19.17c10.25 12.68 15.5 30.95 15.74 54.8v32.7zm-35.26-35.88c0-14.73-2.04-25.43-6.1-32.1-4-6.75-10.26-10.13-18.8-10.13-8.3 0-14.45 3.2-18.44 9.63-3.9 6.35-5.98 16.32-6.23 29.9v43.22c0 14.5 1.96 25.27 5.86 32.35 4 7 10.34 10.5 19.05 10.5 8.62 0 14.85-3.38 18.67-10.13s5.82-17.1 5.98-31v-42.24zM241.34 232h-35.3V96l-42.1 13.07V80.4l73.6-26.4h3.8v178z"/><path fill="#59c9ff" d="M212.2 170.34c.55 3.94 1.63 6.9 3.23 8.85 2.93 3.54 7.95 5.32 15.06 5.32 4.25 0 7.7-.47 10.36-1.4 5.04-1.8 7.56-5.14 7.56-10.03a7.4 7.4 0 00-3.75-6.63c-2.5-1.52-6.43-2.87-11.78-4.04l-9.15-2.05c-8.98-2.03-15.2-4.24-18.63-6.62-5.82-4-8.73-10.22-8.73-18.7 0-7.73 2.8-14.15 8.43-19.27s13.88-7.7 24.78-7.7c9.1 0 16.87 2.44 23.27 7.28 6.45 4.8 9.83 11.8 10.14 20.98h-17.33c-.32-5.2-2.58-8.9-6.8-11.08-2.8-1.44-6.3-2.17-10.5-2.17-4.64 0-8.35.95-11.12 2.83s-4.16 4.5-4.16 7.85c0 3.08 1.35 5.4 4.1 6.9 1.75 1.03 5.5 2.22 11.24 3.6l14.88 3.56c6.53 1.56 11.45 3.65 14.77 6.27 5.14 4.07 7.72 9.95 7.72 17.65 0 7.9-3.03 14.45-9.08 19.7-6.02 5.18-14.53 7.78-25.55 7.78-11.26 0-20.1-2.56-26.55-7.68-6.45-5.15-9.67-12.22-9.67-21.2h17.23zm59.07-24.73v-11.88h8.9v-17.8h16.53v17.8h10.37v11.9H296.7v33.74c0 2.62.33 4.26 1 4.93.66.6 2.7.92 6.1.92h1.57l1.7-.1v12.47l-7.9.28c-7.9.27-13.28-1.1-16.17-4.1-1.88-1.92-2.8-4.87-2.8-8.85V145.6h-8.92zm71.72-.4c-3.88 0-6.9 1.22-9.04 3.65-2.1 2.42-3.43 5.7-3.98 9.84h25.96c-.28-4.42-1.62-7.76-4.05-10.03a12.36 12.36 0 00-8.9-3.46zm0-13.76c5.3 0 10.1 1 14.34 3s7.78 5.13 10.55 9.42c2.5 3.8 4.1 8.2 4.85 13.2.43 2.92.6 7.14.53 12.64h-43.7c.23 6.4 2.24 10.9 6.03 13.48 2.3 1.6 5.1 2.4 8.33 2.4 3.43 0 6.23-.97 8.38-2.93a13.72 13.72 0 003.1-4.4h17.06c-.43 3.8-2.4 7.64-5.92 11.55-5.47 6.2-13.12 9.32-22.97 9.32-8.12 0-15.3-2.62-21.5-7.85s-9.32-13.75-9.32-25.55c0-11.06 2.8-19.53 8.38-25.43 5.63-5.9 12.9-8.86 21.86-8.86zm85.6 33.63a25 25 0 00-3.4-13.06c-2.23-3.78-5.87-5.68-10.9-5.68-6.06 0-10.22 2.88-12.48 8.62-1.17 3.05-1.76 6.9-1.76 11.6 0 7.42 1.97 12.64 5.92 15.64a13.42 13.42 0 008.32 2.64c4.64 0 8.18-1.8 10.6-5.4 2.46-3.6 3.7-8.38 3.7-14.36zm-9.5-33.34c7.46 0 13.77 2.76 18.93 8.26 5.2 5.5 7.8 13.6 7.8 24.25 0 11.25-2.55 19.83-7.63 25.73-5.04 5.9-11.54 8.84-19.5 8.84-5.1 0-9.3-1.27-12.67-3.8a24.79 24.79 0 01-5.4-6.16v33.28h-16.5v-89h16v9.43a26.48 26.48 0 015.73-6.56c3.7-2.84 8.12-4.27 13.24-4.27zm111.8 52.4c7.15 0 12.8-2.65 17-7.9 4.2-5.3 6.32-12.8 6.32-22.5s-2.1-17.18-6.33-22.45c-4.2-5.32-9.85-7.97-17-7.97s-12.85 2.64-17.1 7.9-6.4 12.78-6.4 22.5 2.13 17.23 6.4 22.5 9.95 7.9 17.1 7.9zm41.37-30.4c0 15.5-4.36 27.37-13.07 35.6-6.52 6.73-15.96 10.1-28.3 10.1s-21.78-3.37-28.3-10.1c-8.75-8.23-13.13-20.1-13.13-35.6 0-15.83 4.38-27.7 13.13-35.64 6.52-6.73 15.96-10.1 28.3-10.1s21.78 3.37 28.3 10.1c8.7 7.92 13.07 19.8 13.07 35.62zm47.87-22.1c6.6 0 12 1.73 16.17 5.2 4.23 3.44 6.34 9.16 6.34 17.17v43h-17.1v-38.85c0-3.36-.45-5.94-1.35-7.73-1.65-3.28-4.78-4.92-9.4-4.92-5.65 0-9.54 2.4-11.65 7.2-1.1 2.54-1.64 5.78-1.64 9.73V197h-16.63v-63.75H601v9.32c2.14-3.28 4.17-5.65 6.08-7.1 3.44-2.57 7.8-3.86 13.07-3.86zm63.16 13.58c-3.87 0-6.87 1.22-9.02 3.64-2.1 2.43-3.44 5.7-4 9.85h25.97c-.27-4.43-1.62-7.77-4.04-10.03a12.31 12.31 0 00-8.9-3.46zm0-13.76c5.3 0 10.1 1 14.36 3s7.77 5.13 10.54 9.42c2.5 3.8 4.12 8.2 4.87 13.2.43 2.92.6 7.14.52 12.64h-43.72c.24 6.4 2.25 10.9 6.04 13.48 2.3 1.6 5.08 2.4 8.32 2.4 3.44 0 6.23-.98 8.38-2.93a13.88 13.88 0 003.1-4.4h17.05c-.43 3.8-2.4 7.64-5.9 11.55-5.48 6.2-13.14 9.3-22.98 9.3-8.14 0-15.3-2.6-21.52-7.84s-9.3-13.75-9.3-25.54c0-11.06 2.78-19.53 8.37-25.43 5.62-5.9 12.9-8.86 21.85-8.86z" filter="url(#a)"/><defs><filter id="a" width="618.631" height="214.141" x="144.98" y="61.996" color-interpolation-filters="sRGB" filterUnits="userSpaceOnUse"><feFlood flood-opacity="0" result="A"/><feColorMatrix in="SourceAlpha" values="0 0 0 0 0 0 0 0 0 0 0 0 0 0 0 0 0 0 127 0"/><feOffset dy="4"/><feGaussianBlur stdDeviation="25"/><feColorMatrix values="0 0 0 0 1 0 0 0 0 1 0 0 0 0 1 0 0 0 0.25 0"/><feBlend in2="A"/><feBlend in="SourceGraphic"/></filter></defs></svg>
